source/media/icon/pr.svg

<?xml version="1.0" encoding="UTF-8" standalone="no"?>
<svg
   data-name="Layer 1"
   id="Layer_1"
   viewBox="0 0 512 512"
   version="1.1"
   sodipodi:docname="pr.svg"
   inkscape:version="1.1.2 (0a00cf5, 2022-02-04)"
   xmlns:inkscape="http://www.inkscape.org/namespaces/inkscape"
   xmlns:sodipodi="http://sodipodi.sourceforge.net/DTD/sodipodi-0.dtd"
   xmlns="http://www.w3.org/2000/svg"
   xmlns:svg="http://www.w3.org/2000/svg">
  <sodipodi:namedview
     id="namedview1361"
     pagecolor="#ffffff"
     bordercolor="#999999"
     borderopacity="1"
     inkscape:pageshadow="0"
     inkscape:pageopacity="0"
     inkscape:pagecheckerboard="0"
     showgrid="false"
     inkscape:zoom="1.2871094"
     inkscape:cx="256.38846"
     inkscape:cy="255.61153"
     inkscape:window-width="1920"
     inkscape:window-height="1016"
     inkscape:window-x="0"
     inkscape:window-y="28"
     inkscape:window-maximized="1"
     inkscape:current-layer="Layer_1" />
  <defs
     id="defs1350">
    <style
       id="style1348">.cls-1{fill:#2c083d;}.cls-2{fill:#ed9efb;}</style>
  </defs>
  <path
     id="rect1352"
     style="fill:#000000"
     class="cls-1"
     d="M 136.06055 46.419922 C 82.843305 46.419922 40 89.263229 40 142.48047 L 40 369.5293 C 40 422.74654 82.843305 465.58984 136.06055 465.58984 L 375.93945 465.58984 C 429.15669 465.58984 472 422.74654 472 369.5293 L 472 142.48047 C 472 89.263229 429.15669 46.419922 375.93945 46.419922 L 136.06055 46.419922 z M 207.23047 163.94922 C 258.54047 163.94922 276.33008 192.39984 276.33008 220.08984 C 276.33008 261.24984 244.56922 278.76953 205.44922 278.76953 L 191 278.76953 L 191 328.76953 C 191 330.03953 190.49 330.76953 189 330.76953 L 157.69922 330.76953 C 156.41922 330.76953 155.91992 330.00953 155.91992 328.76953 L 155.91992 166.71094 C 155.91992 165.18094 156.16945 164.71094 157.43945 164.71094 C 167.85945 164.46094 187.92047 163.94922 207.23047 163.94922 z M 208.30078 194.65039 C 200.17078 194.65039 193.29953 194.90016 191.01953 195.16016 L 191 247.49023 C 195.32 247.74023 198.11047 247.74023 205.23047 247.74023 C 225.30047 247.74023 241.30078 241.64055 241.30078 220.81055 C 241.30078 204.81055 230.38078 194.65039 208.30078 194.65039 z M 371.5293 202.07031 C 373.0593 202.07031 373.5293 202.57031 373.5293 204.07031 L 373.5293 235.31055 C 373.5293 236.58055 373.02023 237.08984 371.24023 237.08984 C 352.95023 236.32984 338.24086 241.91953 332.88086 248.01953 L 332.63086 328.80078 C 332.63086 330.32078 332.11984 330.80078 330.33984 330.80078 L 300 330.80078 C 298 330.80078 297.46094 330.03977 297.46094 328.50977 L 297.46094 240.88086 C 297.46094 229.96086 297.19945 215.23008 296.18945 206.33008 C 296.18945 205.06008 296.44094 204.56055 297.71094 204.56055 L 325.34961 204.56055 A 2.81 2.81 0 0 1 328.34961 206.83984 A 48.35 48.35 0 0 1 331.14062 221.07031 A 53 53 0 0 1 371.5293 202.07031 z " />
</svg>

<?xml version="1.0" encoding="UTF-8" standalone="no"?>
<svg
   data-name="Layer 1"
   id="Layer_1"
   viewBox="0 0 512 512"
   version="1.1"
   sodipodi:docname="pr.svg"
   inkscape:version="1.1.2 (0a00cf5, 2022-02-04)"
   xmlns:inkscape="http://www.inkscape.org/namespaces/inkscape"
   xmlns:sodipodi="http://sodipodi.sourceforge.net/DTD/sodipodi-0.dtd"
   xmlns="http://www.w3.org/2000/svg"
   xmlns:svg="http://www.w3.org/2000/svg">
  <sodipodi:namedview
     id="namedview1361"
     pagecolor="#ffffff"
     bordercolor="#999999"
     borderopacity="1"
     inkscape:pageshadow="0"
     inkscape:pageopacity="0"
     inkscape:pagecheckerboard="0"
     showgrid="false"
     inkscape:zoom="1.2871094"
     inkscape:cx="255.61153"
     inkscape:cy="255.61153"
     inkscape:window-width="1920"
     inkscape:window-height="1016"
     inkscape:window-x="0"
     inkscape:window-y="28"
     inkscape:window-maximized="1"
     inkscape:current-layer="Layer_1" />
  <defs
     id="defs1350">
    <style
       id="style1348">.cls-1{fill:#2c083d;}.cls-2{fill:#ed9efb;}</style>
  </defs>
  <rect
     class="cls-1"
     height="419.17"
     rx="96.06"
     width="432"
     x="40"
     y="46.42"
     id="rect1352"
     style="fill:#000000" />
  <rect
     class="cls-1"
     height="379.17"
     rx="76.06"
     width="392"
     x="60"
     y="66.42"
     id="rect1354"
     style="fill:#000000" />
  <path
     class="cls-2"
     d="M155.92,166.71c0-1.53.25-2,1.52-2,10.42-.25,30.48-.76,49.79-.76,51.31,0,69.1,28.45,69.1,56.14,0,41.16-31.76,58.68-70.88,58.68H191v50c0,1.27-.51,2-2,2H157.7c-1.28,0-1.78-.76-1.78-2ZM191,247.49c4.32.25,7.11.25,14.23.25,20.07,0,36.07-6.1,36.07-26.93,0-16-10.92-26.16-33-26.16-8.13,0-15,.25-17.28.51Z"
     id="path1356"
     style="fill:#ffffff" />
  <path
     class="cls-2"
     d="M325.35,204.56a2.81,2.81,0,0,1,3,2.28,48.35,48.35,0,0,1,2.79,14.23,53,53,0,0,1,40.39-19c1.53,0,2,.5,2,2v31.24c0,1.27-.51,1.78-2.29,1.78-18.29-.76-33,4.83-38.36,10.93l-.25,80.78c0,1.52-.51,2-2.29,2H300c-2,0-2.54-.76-2.54-2.29V240.88c0-10.92-.26-25.65-1.27-34.55,0-1.27.25-1.77,1.52-1.77Z"
     id="path1358"
     style="fill:#ffffff" />
</svg>
